λ.svg

<svg width="80" height="124" viewBox="0 0 80 124" fill="none" xmlns="http://www.w3.org/2000/svg">
<path d="M66.8636 112.136C62.6515 112.136 58.9849 111.076 55.8636 108.955C52.7727 106.833 50.4242 103.712 48.8182 99.5909L37 65.8182L29.3636 46.7273L26.7273 40.1818C25.697 37.6061 24.6212 35.7121 23.5 34.5C22.4091 33.2576 21.0303 32.5758 19.3636 32.4545C17.7273 32.3333 15.5455 32.6667 12.8182 33.4545L8.45455 18.4545C10.0303 17.8788 11.6515 17.4394 13.3182 17.1364C15.0152 16.803 16.8333 16.6364 18.7727 16.6364C24.5606 16.6364 29.5455 18.0909 33.7273 21C37.9091 23.9091 41.0455 28.1212 43.1364 33.6364L64.4545 89.7273C65.4545 92.3939 66.3636 94.2879 67.1818 95.4091C68 96.5303 69.2424 97.0909 70.9091 97.0909C71.2424 97.0909 71.5909 97.0758 71.9545 97.0455C72.3182 96.9848 72.6212 96.9394 72.8636 96.9091L74.5909 111.136C73.7121 111.439 72.5303 111.682 71.0455 111.864C69.5909 112.076 68.197 112.167 66.8636 112.136ZM3.18182 111L30.8636 37.6364L43 69.4545H37.3636L23.0909 111H3.18182Z" fill="black"/>
<path d="M14 106.335L15.8258 101" stroke="white"/>
<path d="M30 63.3354L31.8258 57.9999" stroke="white"/>
<path d="M50.844 78.3276L48.8708 73.0448" stroke="white"/>
<path d="M34 34.5L32.5 31.5L30.9999 28.9999L28.9999 26.4999L27.4999 25.4999L25.4999 24.4999L22.9999 23.9999L18.9999 23.9999L15.9999 24.4999L12.9999 24.9999L10.4998 25.9999" stroke="white"/>
<path d="M38.9731 46.2827L37 40.9999" stroke="white"/>
<path d="M42.9731 57.2827L41 51.9999" stroke="white"/>
<path d="M46.9731 68.2827L45 62.9999" stroke="white"/>
<path d="M22 84.3354L23.8258 78.9999" stroke="white"/>
<path d="M26 73.3354L27.8258 67.9999" stroke="white"/>
<path d="M18 95.3354L19.8258 89.9999" stroke="white"/>
<line x1="29.1161" y1="46.9536" x2="37.1161" y2="66.9536" stroke="white" stroke-opacity="0.5" stroke-width="0.25"/>
<path d="M52.4578 81.8L60.5 101.5L61.5 103L63 104L64.5 104.5L66.5 105L69.5 105L73.5 104.5" stroke="white"/>
<path d="M52.4578 81.8L60.5 101.5L61.5 103L63 104L64.5 104.5L66.5 105L69.5 105L73.5 104.5" stroke="white"/>
</svg>

<svg xmlns="http://www.w3.org/2000/svg" viewBox="0 0 80 124" width="40" height="62"><path fill="#000" d="M66.9 112.1c-4.2 0-8-1-11-3.1-3.1-2.2-5.5-5.3-7-9.4L37 65.8l-7.6-19-2.7-6.6c-1-2.6-2-4.5-3.2-5.7-1-1.2-2.5-2-4.1-2-1.7-.2-3.9.2-6.6 1l-4.3-15A29.5 29.5 0 0 1 33.7 21c4.2 3 7.3 7.1 9.4 12.6l21.4 56.1c1 2.7 1.9 4.6 2.7 5.7.8 1.1 2 1.7 3.7 1.7a12.6 12.6 0 0 0 2-.2l1.7 14.2a25 25 0 0 1-7.7 1ZM3.2 111l27.7-73.4L43 69.5h-5.6L23 111H3Z"/><path stroke="#fff" d="m14 106.3 1.8-5.3M30 63.3l1.8-5.3M50.8 78.3l-2-5.3M34 34.5l-1.5-3L31 29l-2-2.5-1.5-1-2-1L23 24h-4l-3 .5-3 .5-2.5 1M39 46.3 37 41M43 57.3 41 52M47 68.3 45 63M22 84.3l1.8-5.3M26 73.3l1.8-5.3M18 95.3l1.8-5.3"/><path stroke="#fff" stroke-opacity=".5" stroke-width=".3" d="m29.1 47 8 20"/><path stroke="#fff" d="m52.5 81.8 8 19.7 1 1.5 1.5 1 1.5.5 2 .5h3l4-.5"/><path stroke="#fff" d="m52.5 81.8 8 19.7 1 1.5 1.5 1 1.5.5 2 .5h3l4-.5"/></svg>
